static/icons/integrity.svg

<svg width="66" height="60" viewBox="0 0 66 60" fill="none" xmlns="http://www.w3.org/2000/svg">
<path d="M58.8195 34.2263V56.9465H36.0993V47.2768H34.9724C34.3544 48.5127 33.082 49.3125 31.7007 49.3125C29.6286 49.3488 27.9564 47.6766 27.92 45.6409C27.8837 43.5688 29.5559 41.8966 31.5916 41.8603C33.0093 41.8603 34.318 42.6237 34.9724 43.896H36.0993V34.2263H45.769C45.769 34.8443 45.4782 35.4623 45.0056 35.8621C44.1331 36.6255 43.6606 37.7525 43.7333 38.9157C43.8787 40.9515 45.6963 42.4783 47.732 42.3329C49.6587 42.1874 51.1491 40.5516 51.1491 38.6249C51.1491 37.5344 50.6765 36.5165 49.8404 35.8258C49.3679 35.4259 49.1134 34.8079 49.1134 34.1899L58.8195 34.2263Z" fill="#9FEFDE"/>
<path d="M56.0566 34.2262H58.8194V56.9464H56.0566V34.2262Z" fill="#24C4A1"/>
<path d="M33.5911 9.28868C34.2091 11.2517 33.1549 13.3238 31.2282 13.9781C30.1013 14.3417 28.8653 14.1599 27.9202 13.4692C27.4112 13.1057 26.7569 12.9966 26.1753 13.142L28.5018 22.5209L19.0866 24.8475C18.9412 24.2295 19.0502 23.5751 19.4137 23.0662C20.1044 22.121 20.2862 20.8851 19.8863 19.7581C19.232 17.7951 17.1235 16.7773 15.1605 17.4316C13.3429 18.0496 12.2887 19.9763 12.7249 21.8666C12.9794 22.9208 13.7064 23.7933 14.6516 24.2658C15.1969 24.5566 15.5967 25.0656 15.7422 25.6472L6.43597 28.0101L0.946777 5.94427L23.0126 0.455078L25.3392 9.83397C25.9571 9.68856 26.4661 9.25233 26.7569 8.70705C27.3022 7.65283 28.2837 6.92579 29.447 6.74402C31.2646 6.45321 33.0095 7.50742 33.5911 9.28868Z" fill="#9FEFDE"/>
<path d="M33.7365 10.5972C32.9004 9.43397 31.5191 8.88869 30.1013 9.1068C28.938 9.28856 27.9565 10.0156 27.4112 11.0698C27.1204 11.6515 26.6115 12.0513 25.9935 12.1967L23.667 2.81785L1.63747 8.30705L0.946777 5.58063L23.0126 0.0914307L25.3392 9.47032C25.9572 9.32491 26.4661 8.88869 26.7569 8.3434C27.3022 7.28918 28.2837 6.56214 29.447 6.38038C31.4827 6.05321 33.373 7.39824 33.7365 9.43397C33.7729 9.83385 33.7729 10.2337 33.7365 10.5972Z" fill="#24C4A1"/>
<path d="M49.1496 34.2263C49.1496 34.8443 49.4404 35.4622 49.913 35.8621C50.7491 36.5892 51.2217 37.6797 51.1853 38.7703C51.1126 40.806 49.4041 42.4419 47.3683 42.3692C45.3326 42.2965 43.7331 40.6606 43.7695 38.6249C43.7695 37.5343 44.242 36.5165 45.0781 35.8258C45.5507 35.4259 45.8052 34.8443 45.8052 34.1899H36.0991V24.5566C36.7171 24.5566 37.2987 24.811 37.735 25.2836C39.08 26.8467 41.4066 27.0285 42.9697 25.6835C43.8785 24.9201 44.3511 23.7568 44.242 22.5935C44.133 20.7759 42.6789 19.2855 40.8249 19.1401C39.6616 19.031 38.4984 19.5036 37.735 20.4124C37.3351 20.885 36.7171 21.1758 36.0991 21.1758V11.4697H58.8193V34.1899L49.1496 34.2263Z" fill="#EBECE9"/>
<path d="M58.8193 11.4697V34.1899H56.0929V14.4506H36.0991V11.5061L58.8193 11.4697Z" fill="#C1C1C1"/>
<path d="M27.9562 45.7136C28.0289 47.7129 29.7011 49.3124 31.7005 49.3124C33.0818 49.3124 34.3542 48.5127 34.9722 47.2767H36.0991V56.9464H13.3789V34.2262H23.0486C23.0486 33.6083 22.7941 33.0266 22.3216 32.5904C20.7584 31.2454 20.5767 28.9188 21.9217 27.3557C22.6851 26.4469 23.8484 25.9743 25.0116 26.047C26.8293 26.156 28.3197 27.6101 28.4651 29.4641C28.5742 30.6274 28.1016 31.7906 27.1928 32.554C26.7202 32.9539 26.4294 33.5719 26.4294 34.1899H36.0991V43.8596H34.9722C34.0634 42.042 31.8095 41.3149 29.9919 42.2237C28.6832 42.9144 27.8835 44.2595 27.9562 45.7136Z" fill="#C1C1C1"/>
<path d="M36.0993 57.3827H13.3791C13.1246 57.3827 12.9429 57.2009 12.9429 56.9464V34.2263C12.9429 33.9718 13.1246 33.79 13.3791 33.79H22.5762C22.5035 33.4629 22.3218 33.172 22.0673 32.9176C20.3224 31.4271 20.1406 28.8098 21.6311 27.0649C23.1215 25.32 25.7389 25.1382 27.4838 26.6286C29.2287 28.1191 29.4105 30.7364 27.92 32.4814C27.7746 32.6268 27.6655 32.7722 27.5201 32.9176C27.2657 33.1357 27.0476 33.4629 26.9749 33.79H36.172C36.4264 33.79 36.6082 33.9718 36.6082 34.2263V43.896C36.6082 44.1504 36.4264 44.3322 36.172 44.3322H35.0451C34.8633 44.3322 34.7179 44.2231 34.6452 44.0777C33.8091 42.4782 31.8461 41.8239 30.2466 42.66C29.1196 43.2416 28.4289 44.4049 28.4653 45.7136C28.538 47.4949 29.9921 48.8762 31.737 48.8762H31.7734C33.0093 48.8762 34.0999 48.1855 34.6452 47.095C34.7179 46.9496 34.8633 46.8405 35.0451 46.8405H36.172C36.4264 46.8405 36.6082 47.0223 36.6082 47.2767V56.9464C36.5355 57.2009 36.3537 57.3827 36.0993 57.3827ZM13.8153 56.5102H35.663V47.713H35.2268C34.4998 48.9489 33.1547 49.7487 31.7007 49.7487H31.6643C29.4105 49.7487 27.5928 47.9674 27.5201 45.7136C27.4474 43.4234 29.2287 41.4967 31.5189 41.424C33.0457 41.3513 34.4634 42.1511 35.2268 43.4597H35.663V34.6625H26.4296C26.1751 34.6625 25.9933 34.4807 25.9933 34.2263C25.9933 33.4629 26.3205 32.7358 26.9021 32.2632C27.7019 31.5725 28.1018 30.5547 28.0291 29.5368C27.8837 27.7192 26.2842 26.3742 24.4665 26.5196C23.7395 26.5923 23.0488 26.8831 22.5035 27.392C21.1948 28.628 21.1221 30.6637 22.3581 32.0088C22.4308 32.1178 22.5399 32.1905 22.6489 32.2632C23.2306 32.7722 23.5214 33.4629 23.5214 34.2263C23.5214 34.4807 23.3396 34.6625 23.0852 34.6625H13.8153V56.5102Z" fill="#244583"/>
<path d="M49.4044 60.0003H48.7498C48.4953 60.0003 48.3135 59.8185 48.3135 59.5639C48.3135 59.3094 48.4953 59.1276 48.7498 59.1276H49.4044C49.6589 59.1276 49.8407 59.3094 49.8407 59.5639C49.8407 59.8185 49.6589 60.0003 49.4044 60.0003Z" fill="#244583"/>
<path d="M46.7138 60H38.8254C38.5709 60 38.3892 59.8183 38.3892 59.5638C38.3892 59.3093 38.5709 59.1276 38.8254 59.1276H46.7138C46.9683 59.1276 47.1501 59.3093 47.1501 59.5638C47.1501 59.8183 46.9683 60 46.7138 60Z" fill="#244583"/>
<path d="M61.3276 52.33V51.6755C61.3276 51.421 61.5095 51.2391 61.764 51.2391C62.0185 51.2391 62.2004 51.421 62.2004 51.6755V52.33C62.2004 52.5846 62.0185 52.7664 61.764 52.7664C61.5458 52.7664 61.3276 52.5846 61.3276 52.33Z" fill="#244583"/>
<path d="M61.3276 49.6396V41.7512C61.3276 41.4967 61.5094 41.3149 61.7639 41.3149C62.0183 41.3149 62.2001 41.4967 62.2001 41.7512V49.6396C62.2001 49.8941 62.0183 50.0758 61.7639 50.0758C61.5457 50.0758 61.3276 49.8941 61.3276 49.6396Z" fill="#244583"/>
<path d="M25.8478 1.50953C25.6296 1.50953 25.4842 1.36407 25.4115 1.18226L25.3387 0.745892C25.266 0.52771 25.4115 0.273164 25.6296 0.200437C25.8478 0.12771 26.1024 0.273164 26.1751 0.491346C26.1751 0.491346 26.1751 0.491346 26.1751 0.52771L26.2842 0.92771C26.3206 1.18226 26.1751 1.4368 25.9569 1.47316C25.9206 1.47316 25.8842 1.50953 25.8478 1.50953Z" fill="#244583"/>
<path d="M26.8294 5.39889C26.7567 5.39889 26.7203 5.39889 26.6476 5.36253C26.5385 5.32618 26.4295 5.21712 26.3931 5.07171L25.8479 2.89058C25.8115 2.67246 25.9569 2.418 26.175 2.38164C26.3931 2.34529 26.6113 2.45435 26.684 2.67246L27.1202 4.30832C27.7018 4.0175 28.3198 3.83574 28.9742 3.72668C29.6648 3.61762 30.3919 3.61762 31.0826 3.72668C31.3371 3.76303 31.4825 3.98115 31.4461 4.23561C31.4098 4.49008 31.1916 4.63549 30.9372 4.59913C30.3192 4.49008 29.7012 4.49008 29.0832 4.59913C28.3562 4.70819 27.6655 4.96266 27.0475 5.36253C26.9748 5.36253 26.9021 5.39889 26.8294 5.39889Z" fill="#244583"/>
<path d="M58.8193 57.3827H36.0992C35.8447 57.3827 35.6629 57.2009 35.6629 56.9464V47.7129H35.2267C34.4997 48.9489 33.1546 49.7487 31.7005 49.7487H31.6642C29.374 49.7487 27.52 47.8947 27.52 45.5682C27.52 44.4776 27.9562 43.4597 28.6833 42.66C29.4467 41.8602 30.5373 41.3876 31.6642 41.3876C33.1183 41.3876 34.4633 42.151 35.2267 43.4234H35.6629V34.2262C35.6629 33.9718 35.8447 33.79 36.0992 33.79H45.7689C46.0233 33.79 46.2051 33.9718 46.2051 34.2262C46.2051 34.9896 45.8779 35.7167 45.2963 36.1893C44.5329 36.88 44.0967 37.8615 44.1694 38.8793C44.3148 40.697 45.8779 42.042 47.6955 41.8966C49.4041 41.7512 50.7128 40.3334 50.7128 38.6249C50.7128 37.6797 50.2765 36.7709 49.5495 36.1529C48.9679 35.6803 48.6407 34.9533 48.677 34.1899C48.677 33.9354 48.8588 33.7537 49.1133 33.7537H58.783C59.0375 33.7537 59.2192 33.9354 59.2192 34.1899V56.9101C59.2556 57.2009 59.0738 57.3827 58.8193 57.3827ZM36.5354 56.5102H58.3831V34.6625H49.6222C49.6949 34.9896 49.8767 35.2805 50.1311 35.5349C51.0399 36.3347 51.5852 37.4616 51.5852 38.6612C51.5852 39.8245 51.1127 40.9151 50.2765 41.7148C49.4404 42.5146 48.2772 42.9144 47.1503 42.8054C45.1145 42.66 43.4787 41.0241 43.2969 38.9884C43.1879 37.6797 43.7331 36.4074 44.7147 35.5713C44.9691 35.3532 45.1872 35.026 45.2599 34.6988H36.5354V43.9323C36.5354 44.1868 36.3536 44.3685 36.0992 44.3685H34.9722C34.7905 44.3685 34.6451 44.2595 34.5724 44.1141C33.7363 42.5146 31.7732 41.8602 30.1737 42.6963C28.5742 43.5324 27.9199 45.4955 28.756 47.095C29.3013 48.1855 30.4282 48.8762 31.6642 48.8762H31.7005C32.9365 48.8762 34.0271 48.1855 34.5724 47.095C34.6451 46.9495 34.7905 46.8405 34.9722 46.8405H36.0992C36.3536 46.8405 36.5354 47.0222 36.5354 47.2767V56.5102Z" fill="#244583"/>
<path d="M6.43568 28.4462C6.36297 28.4462 6.29027 28.4099 6.21756 28.3735C6.10851 28.3008 6.0358 28.2281 6.0358 28.119L0.510254 6.0532C0.510254 5.94414 0.510254 5.83508 0.582958 5.72603C0.655663 5.61697 0.728368 5.54426 0.837425 5.54426L22.9033 0.0187155C23.1214 -0.0539891 23.3758 0.0914201 23.4486 0.345886L25.666 9.2522C25.9932 9.07044 26.2113 8.81597 26.3931 8.4888C26.9747 7.32553 28.1016 6.48942 29.4103 6.27131C31.4461 5.94414 33.4091 7.14376 34.0271 9.10679C34.7541 11.2879 33.5545 13.6145 31.3734 14.3415C30.101 14.7414 28.756 14.5596 27.6654 13.7599C27.3746 13.5781 27.0474 13.4691 26.7203 13.4691L28.9377 22.3754C29.0105 22.5935 28.865 22.848 28.6106 22.9207L19.2317 25.2472C19.0136 25.3199 18.7591 25.1745 18.6864 24.92C18.5046 24.193 18.65 23.3932 19.0863 22.7753C19.6679 21.9391 19.8497 20.8486 19.5225 19.8671C18.9409 18.1585 17.0869 17.2134 15.342 17.795C14.6513 18.0495 14.0333 18.4857 13.6334 19.14C12.6519 20.6668 13.0881 22.6662 14.5786 23.6477C14.6876 23.7204 14.7967 23.7931 14.9058 23.8295C15.5601 24.1566 16.069 24.7746 16.2508 25.5017C16.3235 25.7198 16.1781 25.9743 15.9236 26.047L6.54473 28.3735C6.50838 28.4462 6.47203 28.4462 6.43568 28.4462ZM1.49177 6.27131L6.76285 27.4647L15.2329 25.3563C15.0875 25.0654 14.8331 24.811 14.5059 24.6656C12.4702 23.6477 11.6341 21.1394 12.6519 19.1037C13.6698 17.0679 16.1781 16.2318 18.2138 17.2497C20.2495 18.2676 21.0857 20.7759 20.0678 22.8116C19.9951 22.9934 19.886 23.1751 19.777 23.3205C19.5589 23.6114 19.4498 23.9385 19.4498 24.302L27.9562 22.1936L25.7387 13.2146C25.666 12.9965 25.8115 12.742 26.0659 12.6693C26.0659 12.6693 26.0659 12.6693 26.1023 12.6693C26.8293 12.4876 27.5927 12.633 28.2107 13.0692C29.7011 14.1234 31.7369 13.7599 32.7911 12.3058C33.8453 10.8153 33.4818 8.77962 32.0277 7.7254C30.5372 6.67119 28.5015 7.03471 27.4473 8.4888C27.3746 8.63421 27.2655 8.74327 27.1928 8.88867C26.8657 9.57937 26.2477 10.0519 25.4843 10.2337C25.2662 10.3064 25.0117 10.161 24.939 9.90654L22.6852 1.00023L1.49177 6.27131Z" fill="#244583"/>
<path d="M47.4776 42.8053C46.4234 42.8053 45.4055 42.4055 44.6421 41.6784C42.9699 40.1153 42.8608 37.4979 44.424 35.8257C44.533 35.7166 44.6421 35.6076 44.7512 35.4985C45.0056 35.2804 45.1874 34.9896 45.2601 34.6261H36.0993C35.8448 34.6261 35.6631 34.4443 35.6631 34.1898V24.5565C35.6631 24.302 35.8448 24.1203 36.0993 24.1203C36.8627 24.1203 37.5534 24.4474 38.0623 24.9927C39.262 26.3741 41.334 26.5195 42.6791 25.3562C44.0605 24.1566 44.2059 22.0845 43.0426 20.7395C41.843 19.3581 39.7709 19.2127 38.4259 20.376C38.3168 20.485 38.2077 20.5941 38.0987 20.7032C37.5898 21.2848 36.8991 21.612 36.1357 21.612C35.8812 21.612 35.6994 21.4302 35.6994 21.1757V11.4697C35.6994 11.2152 35.8812 11.0334 36.1357 11.0334H58.8558C59.1103 11.0334 59.2921 11.2152 59.2921 11.4697V34.1898C59.2921 34.4443 59.1103 34.6261 58.8558 34.6261H49.6587C49.7678 34.9532 49.9495 35.2804 50.204 35.4985C51.1492 36.2983 51.6581 37.5343 51.6217 38.7702C51.5127 40.8787 49.8768 42.5872 47.7684 42.769C47.6593 42.8053 47.5503 42.8053 47.4776 42.8053ZM36.5355 33.79H45.769C46.0235 33.79 46.2052 33.9717 46.2052 34.2262C46.2052 34.9896 45.8781 35.6803 45.3328 36.1892C43.9514 37.3525 43.806 39.4246 45.0056 40.806C45.6963 41.6057 46.7142 42.0056 47.732 41.9329C49.4042 41.7875 50.6766 40.4424 50.7856 38.7702C50.822 37.7887 50.4221 36.8436 49.6587 36.1892C49.0771 35.6803 48.7499 34.9896 48.7499 34.2262C48.7499 33.9717 48.9317 33.79 49.1861 33.79H58.4196V11.9059H36.5355V20.6668C36.8627 20.5577 37.1899 20.376 37.408 20.1215C38.2805 19.14 39.5528 18.5947 40.8615 18.7038C43.1517 18.8855 44.8602 20.8849 44.6785 23.1751C44.4967 25.4653 42.4973 27.1739 40.2071 26.9921C39.1166 26.9194 38.0987 26.3741 37.3716 25.538C37.1535 25.2835 36.8627 25.1018 36.4992 25.0291L36.5355 33.79Z" fill="#244583"/>
<path d="M16.4325 42.8417C16.7234 42.8417 16.9779 43.0962 16.9779 43.3871V43.9326C16.9779 44.2235 16.7234 44.478 16.4325 44.4417C16.1416 44.4417 15.9234 44.1871 15.9234 43.9326V43.3871C15.887 43.0962 16.1416 42.8417 16.4325 42.8417Z" fill="white"/>
<path d="M16.4323 45.5681C16.7231 45.5681 16.9776 45.8226 16.9776 46.1134V52.984C16.9776 53.2748 16.7231 53.5293 16.4323 53.4929C16.1415 53.4929 15.9234 53.2384 15.9234 52.984V46.1134C15.887 45.7862 16.1415 45.5681 16.4323 45.5681Z" fill="white"/>
</svg>

<svg xmlns="http://www.w3.org/2000/svg" width="66" height="60" fill="none" xmlns:v="https://vecta.io/nano"><path d="M58.82 34.226v22.72h-22.72v-9.67h-1.127a3.68 3.68 0 0 1-3.272 2.036c-2.072.036-3.744-1.636-3.781-3.672-.036-2.072 1.636-3.744 3.672-3.781 1.418 0 2.726.763 3.381 2.036h1.127v-9.67h9.67c0 .618-.291 1.236-.763 1.636-.873.763-1.345 1.89-1.272 3.054.145 2.036 1.963 3.563 3.999 3.417 1.927-.146 3.417-1.781 3.417-3.708 0-1.09-.473-2.108-1.309-2.799-.473-.4-.727-1.018-.727-1.636l9.706.036z" fill="#9fefde"/><path d="M56.057 34.226h2.763v22.72h-2.763v-22.72z" fill="#24c4a1"/><path d="M33.591 9.289a3.75 3.75 0 0 1-2.363 4.689c-1.127.364-2.363.182-3.308-.509-.509-.364-1.163-.473-1.745-.327l2.326 9.379-9.415 2.327c-.145-.618-.036-1.272.327-1.781.691-.945.873-2.181.473-3.308-.654-1.963-2.763-2.981-4.726-2.326-1.818.618-2.872 2.545-2.436 4.435.255 1.054.982 1.927 1.927 2.399.545.291.945.8 1.091 1.381L6.436 28.01.947 5.944 23.013.455l2.327 9.379c.618-.145 1.127-.582 1.418-1.127.545-1.054 1.527-1.781 2.69-1.963a3.72 3.72 0 0 1 4.144 2.545z" fill="#9fefde"/><path d="M33.737 10.597c-.836-1.163-2.217-1.709-3.635-1.49-1.163.182-2.145.909-2.69 1.963-.291.582-.8.981-1.418 1.127l-2.326-9.379-22.03 5.489-.691-2.726L23.013.091l2.327 9.379c.618-.145 1.127-.582 1.418-1.127.545-1.054 1.527-1.781 2.69-1.963 2.036-.327 3.926 1.018 4.29 3.054.036.4.036.8 0 1.163z" fill="#24c4a1"/><path d="M49.15 34.226c0 .618.291 1.236.763 1.636a3.73 3.73 0 0 1 1.272 2.908c-.073 2.036-1.781 3.672-3.817 3.599s-3.635-1.709-3.599-3.744c0-1.091.472-2.108 1.309-2.799.473-.4.727-.982.727-1.636h-9.706v-9.633c.618 0 1.2.254 1.636.727 1.345 1.563 3.672 1.745 5.235.4a3.61 3.61 0 0 0 1.272-3.09 3.71 3.71 0 0 0-3.417-3.453 3.61 3.61 0 0 0-3.09 1.272c-.4.473-1.018.763-1.636.763V11.47h22.72v22.72l-9.67.036z" fill="#ebece9"/><path d="M58.819 11.47v22.72h-2.726V14.451H36.099v-2.944l22.72-.036zM27.956 45.714a3.76 3.76 0 0 0 3.744 3.599 3.68 3.68 0 0 0 3.272-2.036h1.127v9.67h-22.72v-22.72h9.67a2.21 2.21 0 0 0-.727-1.636c-1.563-1.345-1.745-3.672-.4-5.235.763-.909 1.927-1.381 3.09-1.309a3.71 3.71 0 0 1 3.453 3.417 3.61 3.61 0 0 1-1.272 3.09c-.473.4-.763 1.018-.763 1.636h9.67v9.67h-1.127c-.909-1.818-3.163-2.545-4.98-1.636-1.309.691-2.108 2.036-2.036 3.49z" fill="#c1c1c1"/><g fill="#244583"><path d="M36.099 57.383h-22.72a.42.42 0 0 1-.436-.436v-22.72a.42.42 0 0 1 .436-.436h9.197c-.073-.327-.254-.618-.509-.872-1.745-1.491-1.927-4.108-.436-5.853s4.108-1.927 5.853-.436 1.927 4.108.436 5.853l-.4.436c-.254.218-.473.545-.545.872h9.197a.42.42 0 0 1 .436.436v9.67a.42.42 0 0 1-.436.436h-1.127c-.182 0-.327-.109-.4-.255-.836-1.599-2.799-2.254-4.399-1.418-1.127.582-1.818 1.745-1.781 3.054.073 1.781 1.527 3.163 3.272 3.163h.036a3.19 3.19 0 0 0 2.872-1.781c.073-.145.218-.255.4-.255h1.127a.42.42 0 0 1 .436.436v9.67c-.073.255-.254.436-.509.436zm-22.284-.873h21.848v-8.797h-.436c-.727 1.236-2.072 2.036-3.526 2.036h-.036c-2.254 0-4.072-1.781-4.144-4.035-.073-2.29 1.709-4.217 3.999-4.29 1.527-.073 2.945.727 3.708 2.036h.436v-8.797H26.43a.42.42 0 0 1-.436-.436c0-.763.327-1.491.909-1.963a3.29 3.29 0 0 0 1.127-2.726c-.145-1.818-1.745-3.163-3.563-3.017-.727.073-1.418.363-1.963.872-1.309 1.236-1.381 3.272-.145 4.617.073.109.182.182.291.254a2.54 2.54 0 0 1 .872 1.963.42.42 0 0 1-.436.436h-9.27V56.51zM49.404 60h-.655a.436.436 0 1 1 0-.873h.655a.436.436 0 1 1 0 .873zm-2.69 0h-7.888a.436.436 0 1 1 0-.872h7.888a.436.436 0 1 1 0 .872zm14.614-7.67v-.654a.436.436 0 1 1 .873 0v.654a.42.42 0 0 1-.436.436c-.218 0-.436-.182-.436-.436z"/><path d="M61.328 49.64v-7.888a.436.436 0 1 1 .873 0v7.888a.42.42 0 0 1-.436.436c-.218 0-.436-.182-.436-.436zM25.848 1.51c-.218 0-.364-.145-.436-.327l-.073-.436c-.073-.218.073-.473.291-.545s.473.073.546.291v.036l.109.4c.036.255-.109.509-.327.545-.036 0-.073.036-.109.036zm.981 3.889c-.073 0-.109 0-.182-.036-.109-.036-.218-.145-.255-.291l-.545-2.181c-.036-.218.109-.473.327-.509s.436.073.509.291l.436 1.636c.582-.291 1.2-.473 1.854-.582.691-.109 1.418-.109 2.108 0 .255.036.4.254.364.509s-.255.4-.509.364c-.618-.109-1.236-.109-1.854 0a5.13 5.13 0 0 0-2.036.763c-.073 0-.145.036-.218.036zm31.99 51.984h-22.72a.42.42 0 0 1-.436-.436v-9.233h-.436c-.727 1.236-2.072 2.036-3.526 2.036h-.036c-2.29 0-4.144-1.854-4.144-4.181 0-1.091.436-2.108 1.163-2.908a4.15 4.15 0 0 1 2.981-1.272c1.454 0 2.799.763 3.563 2.036h.436v-9.197a.42.42 0 0 1 .436-.436h9.67a.42.42 0 0 1 .436.436c0 .763-.327 1.491-.909 1.963-.763.691-1.2 1.672-1.127 2.69.145 1.818 1.708 3.163 3.526 3.017 1.709-.145 3.017-1.563 3.017-3.272 0-.945-.436-1.854-1.163-2.472a2.38 2.38 0 0 1-.873-1.963.42.42 0 0 1 .436-.436h9.67a.42.42 0 0 1 .436.436v22.72c.036.291-.145.473-.4.473zm-22.284-.873h21.848V34.663h-8.761c.073.327.255.618.509.872.909.8 1.454 1.927 1.454 3.126a4.21 4.21 0 0 1-1.309 3.054 4.01 4.01 0 0 1-3.126 1.091c-2.036-.145-3.672-1.781-3.853-3.817a4.06 4.06 0 0 1 1.418-3.417c.254-.218.472-.545.545-.873h-8.724v9.234a.42.42 0 0 1-.436.436h-1.127c-.182 0-.327-.109-.4-.254-.836-1.599-2.799-2.254-4.399-1.418s-2.254 2.799-1.418 4.399c.545 1.09 1.672 1.781 2.908 1.781h.036a3.19 3.19 0 0 0 2.872-1.781c.073-.145.218-.255.4-.255h1.127a.42.42 0 0 1 .436.436v9.234z"/><path d="M6.436 28.446c-.073 0-.145-.036-.218-.073-.109-.073-.182-.145-.182-.255L.51 6.053c0-.109 0-.218.073-.327s.145-.182.254-.182L22.903.019c.218-.073.473.073.545.327l2.217 8.906c.327-.182.545-.436.727-.763.582-1.163 1.709-1.999 3.017-2.217 2.036-.327 3.999.872 4.617 2.835.727 2.181-.473 4.508-2.654 5.235-1.272.4-2.617.218-3.708-.582a1.8 1.8 0 0 0-.945-.291l2.217 8.906c.073.218-.073.473-.327.545l-9.379 2.326c-.218.073-.473-.073-.545-.327-.182-.727-.036-1.527.4-2.145.582-.836.763-1.927.436-2.908-.582-1.709-2.436-2.654-4.18-2.072-.691.254-1.309.691-1.709 1.345a3.27 3.27 0 0 0 .945 4.508c.109.073.218.145.327.182a2.6 2.6 0 0 1 1.345 1.672c.073.218-.073.473-.327.545l-9.379 2.326c-.036.073-.073.073-.109.073zM1.492 6.271l5.271 21.193 8.47-2.108c-.145-.291-.4-.545-.727-.691-2.036-1.018-2.872-3.526-1.854-5.562s3.526-2.872 5.562-1.854 2.872 3.526 1.854 5.562a2.32 2.32 0 0 1-.291.509c-.218.291-.327.618-.327.982l8.506-2.108-2.217-8.979c-.073-.218.073-.473.327-.545h.036c.727-.182 1.49-.036 2.108.4a3.3 3.3 0 0 0 4.58-.763 3.3 3.3 0 0 0-.763-4.58 3.3 3.3 0 0 0-4.58.763c-.073.145-.182.254-.255.4-.327.691-.945 1.163-1.708 1.345-.218.073-.473-.073-.545-.327L22.685 1 1.492 6.271zm45.986 36.534a4.11 4.11 0 0 1-2.836-1.127c-1.672-1.563-1.781-4.181-.218-5.853l.327-.327a1.52 1.52 0 0 0 .509-.872h-9.161a.42.42 0 0 1-.436-.436v-9.633a.42.42 0 0 1 .436-.436 2.67 2.67 0 0 1 1.963.872c1.2 1.381 3.272 1.527 4.617.364 1.381-1.2 1.527-3.272.364-4.617-1.2-1.381-3.272-1.527-4.617-.363l-.327.327c-.509.582-1.2.909-1.963.909a.42.42 0 0 1-.436-.436V11.47a.42.42 0 0 1 .436-.436h22.72a.42.42 0 0 1 .436.436v22.72a.42.42 0 0 1-.436.436h-9.197c.109.327.291.654.545.872.945.8 1.454 2.036 1.418 3.272-.109 2.108-1.745 3.817-3.853 3.999-.109.036-.218.036-.291.036zM36.536 33.79h9.234a.42.42 0 0 1 .436.436 2.67 2.67 0 0 1-.872 1.963c-1.381 1.163-1.527 3.235-.327 4.617a3.29 3.29 0 0 0 2.726 1.127c1.672-.145 2.945-1.49 3.054-3.163a3.22 3.22 0 0 0-1.127-2.581c-.582-.509-.909-1.2-.909-1.963a.42.42 0 0 1 .436-.436h9.234V11.906H36.536v8.761c.327-.109.654-.291.873-.545.873-.982 2.145-1.527 3.453-1.418 2.29.182 3.999 2.181 3.817 4.471s-2.181 3.999-4.471 3.817c-1.09-.073-2.108-.618-2.835-1.454a1.52 1.52 0 0 0-.872-.509l.036 8.761z"/></g><path d="M16.433 42.842a.56.56 0 0 1 .545.545v.546c0 .291-.255.545-.545.509a.52.52 0 0 1-.509-.509v-.546c-.036-.291.218-.545.509-.545zm-.001 2.726a.56.56 0 0 1 .545.545v6.871c0 .291-.255.545-.545.509a.52.52 0 0 1-.509-.509v-6.871c-.036-.327.218-.545.509-.545z" fill="#fff"/></svg>
